local/templates/.default/frontend/main/images/icons/ig.svg

<svg width="36" height="36" viewBox="0 0 36 36" fill="none" xmlns="http://www.w3.org/2000/svg">
<path fill-rule="evenodd" clip-rule="evenodd" d="M18 36C27.9411 36 36 27.9411 36 18C36 8.05887 27.9411 0 18 0C8.05887 0 0 8.05887 0 18C0 27.9411 8.05887 36 18 36ZM14 7C10.134 7 7 10.134 7 14V22C7 25.866 10.134 29 14 29H22C25.866 29 29 25.866 29 22V14C29 10.134 25.866 7 22 7H14ZM18 22C20.2091 22 22 20.2091 22 18C22 15.7909 20.2091 14 18 14C15.7909 14 14 15.7909 14 18C14 20.2091 15.7909 22 18 22ZM24.5 11C23.6716 11 23 11.6716 23 12.5C23 13.3284 23.6716 14 24.5 14C25.3284 14 26 13.3284 26 12.5C26 11.6716 25.3284 11 24.5 11Z" fill="#848487"/>
</svg>

<svg width="36" height="36" fill="none" xmlns="http://www.w3.org/2000/svg"><path fill-rule="evenodd" clip-rule="evenodd" d="M18 36c9.941 0 18-8.059 18-18S27.941 0 18 0 0 8.059 0 18s8.059 18 18 18zM14 7a7 7 0 0 0-7 7v8a7 7 0 0 0 7 7h8a7 7 0 0 0 7-7v-8a7 7 0 0 0-7-7h-8zm4 15a4 4 0 1 0 0-8 4 4 0 0 0 0 8zm6.5-11a1.5 1.5 0 1 0 0 3 1.5 1.5 0 0 0 0-3z" fill="#848487"/></svg>
